icons/svg/football-australian.svg

﻿<?xml version="1.0" encoding="utf-8"?>
<!DOCTYPE svg PUBLIC "-//W3C//DTD SVG 1.1//EN" "http://www.w3.org/Graphics/SVG/1.1/DTD/svg11.dtd">
<svg xmlns="http://www.w3.org/2000/svg" xmlns:xlink="http://www.w3.org/1999/xlink" version="1.1" baseProfile="full" width="24" height="24" viewBox="0 0 24.00 24.00" enable-background="new 0 0 24.00 24.00" xml:space="preserve">
	<path fill="#000000" fill-opacity="1" stroke-width="0.2" stroke-linejoin="round" d="M 7.52166,7.52166C 9.17157,5.87174 11.2929,4.69323 13.3749,4.18254C 18,3 21,6 19.8207,10.6283C 19.3068,12.7071 18.1283,14.8284 16.4783,16.4783C 14.8284,18.1283 12.7071,19.3068 10.6283,19.8207C 6,21 3,18 4.18254,13.3749C 4.69323,11.2929 5.87174,9.17157 7.52166,7.52166 Z M 10.6161,11.2626L 10.2626,11.6161L 12.3839,13.7374L 12.7374,13.3839L 10.6161,11.2626 Z M 11.6161,10.2626L 11.2626,10.6161L 13.3839,12.7374L 13.7374,12.3839L 11.6161,10.2626 Z M 9.61611,12.2626L 9.26256,12.6161L 11.3839,14.7374L 11.7374,14.3839L 9.61611,12.2626 Z M 12.6287,9.27513L 12.2751,9.62868L 14.3964,11.75L 14.75,11.3965L 12.6287,9.27513 Z M 8.62868,13.2751L 8.27512,13.6287L 10.3964,15.75L 10.75,15.3964L 8.62868,13.2751 Z M 13.6287,8.27513L 13.2751,8.62868L 15.3964,10.75L 15.75,10.3964L 13.6287,8.27513 Z "/>
</svg>

<svg xmlns="http://www.w3.org/2000/svg" version="1.1" baseProfile="full" width="24" height="24" viewBox="0 0 24.00 24.00" xml:space="preserve"><path fill="#000" fill-opacity="1" stroke-width=".2" stroke-linejoin="round" d="M7.522 7.522c1.65-1.65 3.77-2.83 5.853-3.34C18 3 21 6 19.82 10.63c-.513 2.08-1.692 4.2-3.342 5.85-1.65 1.65-3.77 2.83-5.85 3.343C6 21 3 18 4.183 13.376c.51-2.082 1.69-4.203 3.34-5.853zm3.094 3.74l-.353.354 2.12 2.12.354-.352-2.12-2.12zm1-1l-.353.354 2.12 2.12.354-.352-2.12-2.12zm-2 2l-.353.354 2.12 2.12.354-.352-2.12-2.12zm3.013-2.987l-.355.354 2.12 2.12.355-.354-2.12-2.12zm-4 4l-.355.354 2.12 2.12.355-.354-2.12-2.12zm5-5l-.355.354 2.12 2.12.355-.354-2.12-2.12z"/></svg>
